!!!COM:	Bach, Johann Sebastian
!!!CDT:	1685/02/21/-1750/07/28/
!!!OTL@@DE:	Du Friedef&uuml;rst, Herr Jesu Christ
!!!SCT:	BWV 67/7
!!!PC#:	42
!!!AGN:	chorale
**kern	**kern	**kern	**kern
*ICvox	*ICvox	*ICvox	*ICvox
*Ibass	*Itenor	*Ialto	*Isoprn
*I"Bass	*I"Tenor	*I"Alto	*I"Soprano
*>[A,A,B]	*>[A,A,B]	*>[A,A,B]	*>[A,A,B]
*>norep[A,B]	*>norep[A,B]	*>norep[A,B]	*>norep[A,B]
*>A	*>A	*>A	*>A
*clefF4	*clefGv2	*clefG2	*clefG2
*k[f#c#g#]	*k[f#c#g#]	*k[f#c#g#]	*k[f#c#g#]
*A:	*A:	*A:	*A:
*M4/4	*M4/4	*M4/4	*M4/4
*met(c)	*met(c)	*met(c)	*met(c)
*MM100	*MM100	*MM100	*MM100
4A	4e	4a	4cc#
=1	=1	=1	=1
8dL	4d	4f#	4a
8c#J	.	.	.
4B	4d	4g#	4b
4A	4e	4a	4cc#
4G#	4e	4b	4ee
=2	=2	=2	=2
4F#	4f#	4a	4dd
4G#	4e	4b	4dd
4A;	4e;	4a;	4cc#;
4C#	4e	4a	4ee
=3	=3	=3	=3
8F#L	4f#	4a	4dd
8G#J	.	.	.
4A	4e	4a	4cc#
4D	4f#	4a	4b
4E	4e	4g#	4b
=4	=4	=4	=4
2.AA;	2.e;	2.a;	2.cc#;
=:|!	=:|!	=:|!	=:|!
*>B	*>B	*>B	*>B
8EL	4e	4g#	4b
8F#J	.	.	.
=5	=5	=5	=5
4G#	4B	4e	4b
4E	4e	4g#	4b
4A	4e	4a	4cc#
4E	8eL	4g#	4b
.	8dJ	.	.
=6	=6	=6	=6
4F#	4c#	4f#	4a
4BB	4d	4g#	4b
4C#;	4c#;	4e#;	4g#;
4C#	4c#	4e#	4g#
=7	=7	=7	=7
4F#	4c#	4f#	4a
4E	4enX	4g#	4b
4A	2e	4a	4cc#
4G#	.	4e	8bL
.	.	.	8cc#J
=8	=8	=8	=8
4F#	4d	4a	4dd
4E	4e	4a	4cc#
4D	4f#	4a	2b
4E	8eL	4g#	.
.	8dJ	.	.
=9	=9	=9	=9
2.AA;	2.c#;	2.e;	2.a;
==	==	==	==
*-	*-	*-	*-
!!!hum2abc: -Q ''
!!!title: @{PC#}. @{OTL@@DE}
!!!YOR1: 371 vierstimmige Choralges&auml;nge von Johann Sebastian Bach, 
!!!YOR2: 4th ed. by Alfred D&ouml;rffel (Leipzig: Breitkopf und H&auml;rtel, 
!!!YOR2: c.1875). 178 pp. Plate "V.A.10".  reprint: J.S. Bach, 371 Four-Part 
!!!YOR4: Chorales (New York: Associated Music Publishers, Inc., c.1940).
!!!SMS: B&H, 4th ed, Alfred D&ouml;rffel, c.1875, plate V.A.10
!!!EED:  Craig Stuart Sapp
!!!EEV:  2009/05/22
